X: 26658
T: Midnight Cruise To Inverie
R: reel
M: 4/4
K: Dminor
A=B|Acc2 AddA|cAGE FEDC|A,3D FEFG|Adde fedc|
Add2 AccA|=BAGE FEDE|FEFG AddA|cAGE EDD=B|
Acc A2 ddA|cAGE FEDC|A,3D FEFG|Adde fedc|
Afff e2ab|agfe fedc|Add2 cAGE|FEDC D3E|
|:DA,A,2 FEFG|ADDB DDA^c|d^cde fefg|addb zdad|
[1gbeg ^ceAc|e^ccf ccec|d^cde fefg|[a3A3][a3A3]DE:|
[2bagf efed|^cAAgz Aec|dcdB AGFE|EDEF D2||

